X:45
T: Hill Country (The)
C:  B. Black
R: jig
M: 6/8
L: 1/8
K: Dmix
A | Add cAG | AGE EDC | Add cAG | edA c2 A |
Add cAG | FGA def | ecA dAF | GEC D2 :|
A | Add cee | dfd AFE | DFA dfa | ged c2 A |
Add cee | dfd efg | faa gec | edc d2 :|
